X:41
T:Rondeau
R:Rondeau
C:anonyme
H:
N:5, p 3
B:
O:France
A:
Z:Eric Forgeot - http://anamnese.online.fr
M:6/8
L:1/4
Q:1/4=120
K:C
+segno+cc/2 | ee/2gg/2 | +++ed/2fe/2 | d/2>e/2c/2 +++BA/2 | G3/2 cc/2 |
ee/2gg/2 | ed/2 e/2>f/2g/2 | g/2>f/2e/2 +++dc/2 | c3/2 +fine+ :|| ee/2 | gg/2aa/2 |
g3/2aa/2 | ga/2gf/2 | +++ed/2ee/2 | e/2>f/2e/2dc/2 | g3/2 +D.S.+ |]

